X: 24934
T: Maid Behind The Bar, The
R: reel
M: 4/4
K: Dmajor
|:FAAB AFED|FAAB A2 de|fBBA Bcde|fdgf efdB|
FAAB AFED|FAAB A2 de|fBBA BcdB|AFEF D3z:|
|:fgag fd d2|fdad fd d2|efga be e2|gebe geeg|
fgaf bfaf|defd e2 de|fBBA BcdB|AFEF D3z:|

